X: 40637
T: Toormore, The
R: slide
M: 12/8
K: Adorian
|:G|E2 A ABA c2 d e3|ded d^cd B2 d g2 G|
E2 A A2 B c2 d e2 ^c|d2 c A2 ^G A3 A2:|
d|efe ded cdc B3|ABA cBA G2 E E2 D|
E2 A- A2 B c2 d e3|cBA B2 G A2 B c2 d|
e2 e ded c2 c BcB|A2 A cBA G2 E E2 ^D|
E2 A A^GA c2 d e2 ^c|d2 c A2 ^G A3 A2||

